icons/users.svg

<?xml version="1.0" encoding="UTF-8" standalone="no"?>
<svg width="24px" height="24px" viewBox="0 0 24 24" version="1.1" xmlns="http://www.w3.org/2000/svg" xmlns:xlink="http://www.w3.org/1999/xlink" xmlns:sketch="http://www.bohemiancoding.com/sketch/ns">
    <!-- Generator: Sketch 3.4.1 (15681) - http://www.bohemiancoding.com/sketch -->
    <title>users</title>
    <desc>Created with Sketch.</desc>
    <defs></defs>
    <g id="Page-1" stroke="none" stroke-width="1" fill="none" fill-rule="evenodd" sketch:type="MSPage">
        <g id="users" sketch:type="MSArtboardGroup" fill="#474747">
            <path d="M6.7,12.829952 L6.7,15.440192 L7.03182585,14.9693232 L2.22318585,16.6867632 C0.877650466,17.1679554 -0.02,18.4413441 -0.02,19.869632 L-0.02,21.680192 C-0.02,21.9563344 0.203857625,22.180192 0.48,22.180192 L18.72,22.180192 C18.9961424,22.180192 19.22,21.9563344 19.22,21.680192 L19.22,19.869632 C19.22,18.4413441 18.3223495,17.1679554 16.977008,16.6868325 L12.1681742,14.9693232 L12.5,15.440192 L12.5,12.650432 L11.5,12.650432 L11.5,15.440192 C11.5,15.6514965 11.6328324,15.8399889 11.8318258,15.9110608 L16.6404658,17.6285008 C17.5879606,17.9673453 18.22,18.8639436 18.22,19.869632 L18.22,21.680192 L18.72,21.180192 L0.48,21.180192 L0.98,21.680192 L0.98,19.869632 C0.98,18.8639436 1.61203942,17.9673453 2.55972801,17.6284315 L7.36817415,15.9110608 C7.56716755,15.8399889 7.7,15.6514965 7.7,15.440192 L7.7,12.829952 L6.7,12.829952 L6.7,12.829952 Z" id="Shape" sketch:type="MSShapeGroup"></path>
            <path d="M13.78,7.76 C13.78,10.682515 11.8321407,13.02 9.48,13.02 C7.12724889,13.02 5.18,10.6829247 5.18,7.76 C5.18,4.83707531 7.12724889,2.5 9.48,2.5 C11.8321407,2.5 13.78,4.83748502 13.78,7.76 L13.78,7.76 Z M14.78,7.76 C14.78,4.32142237 12.4288688,1.5 9.48,1.5 C6.53048468,1.5 4.18,4.32103626 4.18,7.76 C4.18,11.1989637 6.53048468,14.02 9.48,14.02 C12.4288688,14.02 14.78,11.1985776 14.78,7.76 L14.78,7.76 Z" id="Shape" sketch:type="MSShapeGroup"></path>
            <path d="M14.1758696,6.73848186 C14.1338738,6.74348136 14.1041633,6.74587547 14.0255059,6.75114859 C14.0053832,6.75250026 14.0053832,6.75250026 13.9841221,6.75399374 C13.878866,6.7615335 13.7986611,6.77093313 13.7042726,6.78936402 C12.318938,7.05617957 11.4636246,6.60505444 10.648585,5.17916956 C10.4523193,4.83580923 9.95396176,4.84545543 9.77113026,5.19615357 C9.33708226,6.02872252 7.84513865,6.780096 6.600096,6.780096 C5.99530874,6.780096 5.48752641,6.65813258 4.97291784,6.38949516 L4.51015416,7.27597684 C5.16911538,7.61996965 5.83578522,7.780096 6.600096,7.780096 C8.19209352,7.780096 10.0358554,6.85153962 10.6578617,5.65843843 L9.78040699,5.67542244 C10.7977367,7.45520715 12.0648009,8.12350545 13.8946587,7.77107247 C13.9444833,7.76134508 13.9872726,7.75633039 14.0555716,7.75143795 C14.0733269,7.75019048 14.0733269,7.75019048 14.0923949,7.74890901 C14.1878437,7.74251021 14.2296308,7.73914296 14.2940824,7.73147014 L14.1758696,6.73848186 L14.1758696,6.73848186 Z" id="Shape" sketch:type="MSShapeGroup"></path>
            <path d="M21.12,22.18 L23.52,22.18 C23.7961424,22.18 24.02,21.9561424 24.02,21.68 C24.02,21.5128828 24.0162885,21.223755 24.0051809,20.8529139 C23.9866616,20.234627 23.9533091,19.6160119 23.9012335,19.0364785 C23.8214527,18.1486224 23.7053984,17.4328675 23.5395336,16.9328237 C23.1204817,15.671609 20.982613,14.5279201 16.9763805,13.0175833 L17.3,13.48544 L17.3,12.04544 L17.0631627,12.4705816 C17.2537726,12.3525941 17.4946574,12.1078953 17.7176194,11.7044455 C18.0601495,11.0846374 18.26,10.2471637 18.26,9.16544 L17.76,9.66544 C19.3866667,9.66544 19.3866667,6.74544 17.76,6.74544 L17.76,7.24544 L18.26,7.24544 C18.26,7.31244259 18.4861681,6.82324855 18.6114086,6.5224115 C18.8476981,5.95482658 18.995362,5.43791117 19.0314927,4.92853733 C19.0528257,4.62778224 19.0327986,4.34050312 18.9652864,4.06839611 C18.6082418,2.63699938 16.2723497,1.49356163 14.7226499,2.52669485 C14.4928856,2.67987108 14.4307986,2.99030575 14.5839749,3.2200701 C14.7371511,3.44983444 15.0475858,3.51192138 15.2773501,3.35874515 C16.2120286,2.73562613 17.7955544,3.51077461 17.9948647,4.30981128 C18.035492,4.47356098 18.0482606,4.65671987 18.0339988,4.85778356 C18.006847,5.2405729 17.8865739,5.66160329 17.6882138,6.13807926 C17.7249542,6.04982594 17.26,7.0555062 17.26,7.24544 C17.26,7.52158237 17.4838576,7.74544 17.76,7.74544 C18.0533333,7.74544 18.0533333,8.66544 17.76,8.66544 C17.4838576,8.66544 17.26,8.88929763 17.26,9.16544 C17.26,10.0837563 17.0998505,10.7548626 16.8423806,11.2207545 C16.7053426,11.4687247 16.5862274,11.5897259 16.5368373,11.6202984 C16.3895985,11.7114392 16.3,11.8722755 16.3,12.04544 L16.3,13.48544 C16.3,13.6935422 16.4288954,13.8798864 16.6236195,13.9532967 C20.2301637,15.3129524 22.3188148,16.4303115 22.5904659,17.2478957 C22.7260544,17.656664 22.8318459,18.3091234 22.9052464,19.1259757 C22.9553359,19.6834055 22.9876609,20.2829651 23.0056291,20.8828531 C23.016414,21.2429168 23.02,21.5222706 23.02,21.68 L23.52,21.18 L21.12,21.18 C20.8438576,21.18 20.62,21.4038576 20.62,21.68 C20.62,21.9561424 20.8438576,22.18 21.12,22.18 L21.12,22.18 Z" id="Shape" sketch:type="MSShapeGroup"></path>
        </g>
    </g>
</svg>

<svg width="24" height="24" xmlns="http://www.w3.org/2000/svg"><title>users</title><g fill="#474747" fill-rule="evenodd"><path d="M6.7 12.83v2.61l.332-.47-4.81 1.717A3.38 3.38 0 0 0-.02 19.87v1.81a.5.5 0 0 0 .5.5h18.24a.5.5 0 0 0 .5-.5v-1.81a3.38 3.38 0 0 0-2.243-3.183l-4.81-1.718.333.47v-2.79h-1v2.79c0 .21.133.4.332.47l4.808 1.72a2.38 2.38 0 0 1 1.58 2.24v1.81l.5-.5H.48l.5.5v-1.81a2.38 2.38 0 0 1 1.58-2.25L7.368 15.9a.5.5 0 0 0 .332-.47v-2.61h-1z"/><path d="M13.78 7.76c0 2.923-1.948 5.26-4.3 5.26-2.353 0-4.3-2.337-4.3-5.26 0-2.923 1.947-5.26 4.3-5.26 2.352 0 4.3 2.337 4.3 5.26zm1 0c0-3.44-2.35-6.26-5.3-6.26-2.95 0-5.3 2.82-5.3 6.26s2.35 6.26 5.3 6.26c2.95 0 5.3-2.82 5.3-6.26z"/><path d="M14.176 6.738a2.617 2.617 0 0 1-.15.013c-.02.01-.02.01-.042.01a2.18 2.18 0 0 0-.28.038c-1.385.267-2.24-.184-3.055-1.61a.5.5 0 0 0-.88.017c-.44.83-1.93 1.58-3.17 1.58a3.36 3.36 0 0 1-1.63-.39l-.466.887a4.36 4.36 0 0 0 2.09.504c1.59 0 3.435-.927 4.057-2.12l-.877.016c1.017 1.78 2.284 2.45 4.114 2.094.05-.01.092-.01.16-.02h.037a1.9 1.9 0 0 0 .203-.02l-.116-.99zM21.12 22.18h2.4a.5.5 0 0 0 .5-.5c0-.167-.004-.456-.015-.827a30.894 30.894 0 0 0-.104-1.817c-.08-.887-.19-1.603-.36-2.103-.42-1.26-2.55-2.405-6.56-3.915l.33.467v-1.44l-.237.426c.19-.11.43-.36.655-.76.34-.62.54-1.454.54-2.54l-.5.5c1.63 0 1.63-2.92 0-2.92v.5h.5c0 .07.228-.42.35-.72.24-.566.387-1.083.42-1.592.025-.3.005-.59-.063-.86-.356-1.43-2.692-2.575-4.24-1.54a.5.5 0 0 0 .553.83c.936-.623 2.52.152 2.72.95.04.165.052.348.04.55-.03.382-.15.803-.348 1.28.036-.09-.43.917-.43 1.106a.5.5 0 0 0 .5.5c.294 0 .294.92 0 .92a.5.5 0 0 0-.5.5c0 .92-.16 1.59-.417 2.056-.137.25-.256.37-.305.4a.5.5 0 0 0-.237.425v1.44a.5.5 0 0 0 .328.47c3.605 1.36 5.694 2.477 5.965 3.295.136.41.242 1.06.315 1.877a33.032 33.032 0 0 1 .116 2.555l.5-.5h-2.4a.5.5 0 1 0 0 1z"/></g></svg>
